Papirus-nordic/64x64/places/folder-red-image-people.svg

<svg xmlns="http://www.w3.org/2000/svg" width="64" height="64"><rect width="50" height="32" x="7" y="24" rx="2.5" ry="2.5" opacity=".2"/><path d="M7 44.5C7 45.885 8.115 47 9.5 47h45c1.385 0 2.5-1.115 2.5-2.5v-27c0-1.385-1.115-2.5-2.5-2.5H29v-2.5c0-1.385-1.115-2.5-2.5-2.5h-17A2.495 2.495 0 0 0 7 12.5" fill="#ae4f58"/><rect width="50" height="32" x="7" y="22" rx="2.5" ry="2.5" opacity=".2"/><rect width="44" height="20" x="10" y="18" rx="2.5" ry="2.5" fill="#e4e4e4"/><rect width="50" height="32" x="7" y="23" rx="2.5" ry="2.5" fill="#bf616a"/><path d="M9.5 10A2.495 2.495 0 0 0 7 12.5v1C7 12.115 8.115 11 9.5 11h17c1.385 0 2.5 1.115 2.5 2.5v-1c0-1.385-1.115-2.5-2.5-2.5zM29 15v1h25.5c1.39 0 2.5 1.115 2.5 2.5v-1c0-1.385-1.11-2.5-2.5-2.5z" opacity=".1" fill="#fff"/><path d="M26.82 34.602a.995.995 0 0 0-.203.07c-.645.303-.812 1.247-.371 2.121.355.703.986 1.139 1.559 1.125.43 2.337 2.147 4.082 4.187 4.082h.016c2.04 0 3.757-1.745 4.187-4.082.572.013 1.204-.422 1.559-1.125.441-.874.274-1.818-.371-2.121a.995.995 0 0 0-.203-.07C37.097 32.046 34.812 30 32 30s-5.097 2.046-5.18 4.602zm8.317 7.831a2.915 2.915 0 0 1-1.016.887l-.004.004a3.703 3.703 0 0 1-2.109.676h-.016c-1.166 0-2.218-.581-2.992-1.504-3.263.482-6.749 1.18-6.969 1.976-.004.011.003.025 0 .035-.01.041-.011.077-.015.118-.002.018-.016.031-.016.05v2.789c0 .297.223.536.5.536h19c.277 0 .5-.239.5-.536V44.656c-.003-.065-.029-.12-.047-.184-.23-.828-3.612-1.555-6.816-2.039z" fill="#974a4d"/></svg>

<svg xmlns="http://www.w3.org/2000/svg" width="64" height="64" version="1">
 <rect style="opacity:0.2" width="56" height="36" x="4" y="22" rx="2.8" ry="2.8"/>
 <path style="fill:#ae4f58" d="M 4,46.2 C 4,47.751 5.2488,49 6.8,49 H 57.2 C 58.751,49 60,47.751 60,46.2 V 15.8 C 60,14.249 58.751,13 57.2,13 H 32 C 27.8,13 26.4,7 22.2,7 H 6.8 C 5.2488,7 4,8.2488 4,9.8"/>
 <rect style="opacity:0.2" width="56" height="36" x="4" y="20" rx="2.8" ry="2.8"/>
 <rect style="fill:#e4e4e4" width="48" height="22" x="8" y="16" rx="2.8" ry="2.8"/>
 <rect style="fill:#bf616a" width="56" height="36" x="4" y="21" rx="2.8" ry="2.8"/>
 <path style="opacity:0.1;fill:#ffffff" d="M 6.8008,7 C 5.2496,7 4,8.2496 4,9.8008 V 10.801 C 4,9.2496 5.2496,8 6.8008,8 H 22.199 C 26.399,8 27.8,14 32,14 H 57.199 C 58.75,14 60,15.25 60,16.801 V 15.801 C 60,14.25 58.75,13 57.199,13 H 32 C 27.8,13 26.399,7 22.199,7 Z"/>
 <path style="fill:#974a4d" d="M 26.82,34.602 C 26.751,34.617 26.682,34.642 26.617,34.672 25.972,34.975 25.805,35.919 26.246,36.793 26.601,37.496 27.232,37.932 27.805,37.918 28.235,40.255 29.952,42 31.992,42 H 32.008 C 34.048,42 35.765,40.255 36.195,37.918 36.767,37.931 37.399,37.496 37.754,36.793 38.195,35.919 38.028,34.975 37.383,34.672 37.318,34.642 37.249,34.617 37.18,34.602 37.097,32.046 34.812,30 32,30 29.188,30 26.903,32.046 26.82,34.602 Z M 35.137,42.433 C 34.889,42.777 34.562,43.087 34.121,43.32 L 34.117,43.324 C 33.494,43.753 32.773,44 32.008,44 H 31.992 C 30.826,44 29.774,43.419 29,42.496 25.737,42.978 22.251,43.676 22.031,44.472 22.027,44.483 22.034,44.497 22.031,44.507 22.021,44.548 22.02,44.584 22.016,44.625 22.014,44.643 22,44.656 22,44.675 V 44.691 47.464 C 22,47.761 22.223,48 22.5,48 H 41.5 C 41.777,48 42,47.761 42,47.464 V 44.691 44.656 C 41.997,44.591 41.971,44.536 41.953,44.472 41.723,43.644 38.341,42.917 35.137,42.433 Z"/>
</svg>
